X:1
T:Title
%%score 1 2
L:1/8
Q:1/4=100
M:4/4
K:D
V:1 treble nm="Strings 1, Treble"
V:2 bass nm="Strings 1, Bass"
V:1
 z4 z2 D>[DE] | [DF]2 [DF]2 [DF]2 [CE]2 | [DF]6 D>[DF] | [FA]2 [FA]2 [FA]2 [=F^G]2 | %4
w: 1.~With~ af|flic tions~ great~ and~|sore,~ As~ if~|bound~ by~ Sa tan's~|
 [FA]6 [DF]>[FA] | [Fd]2 [Fd]2 [Fd]2 [FA]2 | [GB]2 [Gd]2 [FA]2 D>[DE] | [DF]2 [DF]2 [DF]2 [CE]2 | %8
w: hand,~ For~ Thy~|heal ing~ mer cy~|to~ im plore,~ Lord,~ I~|came~ at~ Thy~ com|
 D6 [DF]>[EG] | [FA]3 [DF] [Fd]2 [GB]2 | [FA]6 [FA]>[FA] | [Gc]3 [GA] [Gc]2 [Ge]2 | %12
w: mand.~ * *||||
 [Fd]6 [FA]>[FA] | [Fd]3 [Fc] [Fd]2 [FA]2 | [GB]6 [Bd]>[GB] | [FA]3 [DF] [DF]2 [CE]2 | D6 z2 |] %17
w: |||||
V:2
 z4 z2 [D,F,]>[D,G,] | [D,A,]2 [D,A,]2 [D,A,]2 [A,,A,]2 | [D,A,]6 [D,F,]>[D,A,] | %3
 [D,D]2 [D,D]2 [D,D]2 [D,D]2 | [D,D]6 [D,A,]>[D,A,] | [D,A,]2 [D,A,]2 [D,A,]2 [D,D]2 | %6
 [G,,D]2 [B,,D]2 [D,D]2 [F,A,]>[G,B,] | A,2 A,2 [A,,A,]2 [A,,G,]2 | [D,F,]6 [D,A,]>[D,A,] | %9
 [D,D]2 [D,D]2 [D,A,]2 [D,D]2 | [D,D]2 [D,D]2 [D,D]2 [D,D]>[D,D] | A,2 A,2 [A,,A,]2 [A,,A,]2 | %12
 [D,A,]2 [D,A,]2 [D,A,]2 [D,D]>[D,D] | [D,A,]2 [D,A,]2 [D,A,]2 [D,D]2 | %14
 [G,D]2 [G,D]2 [G,D]2 [G,D]>[G,D] | [A,D]3 A, [A,,A,]2 [A,,G,]2 | [D,F,]6 z2 |] %17

